assets/forward-circle.svg

<svg xmlns="http://www.w3.org/2000/svg" fill="none" viewBox="0 0 28 28">
  <circle cx="14" cy="14" r="13.25" stroke="#2A2238" stroke-width="1.5"/>
  <path fill="#2A2238" d="M14.95 13.3938c.4667.2694.4667.943 0 1.2124l-6.9 3.9837c-.46667.2695-1.05-.0673-1.05-.6062v-7.9674c0-.53888.58333-.87566 1.05-.60623l6.9 3.98373Z"/>
  <path fill="#2A2238" d="M22.95 13.3938c.4667.2694.4667.943 0 1.2124l-6.9 3.9837c-.4667.2695-1.05-.0673-1.05-.6062v-7.9674c0-.53888.5833-.87566 1.05-.60623l6.9 3.98373Z"/>
</svg>

<svg width="28" height="28" viewBox="0 0 28 28" fill="none" xmlns="http://www.w3.org/2000/svg">
<circle cx="14" cy="14" r="13.25" stroke="#2A2238" stroke-width="1.5"/>
<path d="M14.95 13.3938C15.4167 13.6632 15.4167 14.3368 14.95 14.6062L8.05 18.5899C7.58333 18.8594 7 18.5226 7 17.9837L7 10.0163C7 9.47742 7.58333 9.14064 8.05 9.41007L14.95 13.3938Z" fill="#2A2238"/>
<path d="M22.95 13.3938C23.4167 13.6632 23.4167 14.3368 22.95 14.6062L16.05 18.5899C15.5833 18.8594 15 18.5226 15 17.9837L15 10.0163C15 9.47742 15.5833 9.14064 16.05 9.41007L22.95 13.3938Z" fill="#2A2238"/>
</svg>
